X:378
T: WE SALL DAT MUEHLKEN MAHLEN
N: E1564
O: Europa, Mitteleuropa, Deutschland, Westfalen
R: Staende -, Bauern - Lied, Flachsbrechen, bei der Arbeit
M: 6/8
L: 1/16
K: F
C2 | F4G2A4B2 | c6A4
AB | c4c2F4
c2 | d4c2d4c2 | c6A6 |
f6d4dd | d4d2c4
A2 | c4c2c2c3B | A6-A4

@@@ Tune index: 5062
